X:41
C:Page 20
T:Heel & Fling. MBe.41
S:Matthew Betham MS, Towcett Cumbria, 1815
O:England;Cumbria;Towcett
Z:VMP – Hugh Taylor, 2012
T:Highland Fling,aka? MBe.41
M:Am
L:1/8
Q:1/2=100
R:.Reel
N:No time signature given, Common Time assumed.
N:The A part, and the first 4 bars of the B part are on page 20, with the second 4 bars of the B part on
N:page 21
N:NB1-The first, second, and third bars of the B music are obviously incorrect as they only have 7 quavers
N:instead of 8, but I’m leaving it to the player to interpret.
N:NB2-This bar was written as 2 triplets. I have changed them to what you see here.
K:C
A2 AB G2 GB|A2 AB cdec|A2 AB G2 GB|cABG EA A2:|
|:”^NB1-3 bars as written”cdeg fde|gedc BGG|cdeg fde|e2 a2 a2 g2|
“^NB2″ge e2 fd d2|ec c2 BG G2|AcBd cedf|gedB cA A2:|

